X: 13648
T: Follow Me Down
R: reel
M: 4/4
K: Bdorian
BcBA FGAF|~B3c defe|dcdA FGAg|1 afec dBBA:|2 afec dBBe||
fd~d2 fdad|cA~A2 cde=g|fd~d2 (3fga bg|afec dBBa|
bafg afec|dcdA FGAc|~B3c dfbg|afec dBBA||

